dist/img/hamburger.svg

<svg width="17" height="13" fill="none" xmlns="http://www.w3.org/2000/svg"><path d="M.5 12.5h16v-2H.5v2zm0-5h16v-2H.5v2zm0-7v2h16v-2H.5z" fill="#fff"/></svg>

<svg width="17" height="13" viewBox="0 0 17 13" fill="none" xmlns="http://www.w3.org/2000/svg">
<path d="M0.5 12.5H16.5V10.5H0.5V12.5ZM0.5 7.5H16.5V5.5H0.5V7.5ZM0.5 0.5V2.5H16.5V0.5H0.5Z" fill="white"/>
</svg>
